svg/alert_negative.svg

<?xml version="1.0" encoding="UTF-8" standalone="no"?>
<!-- Created with Inkscape (http://www.inkscape.org/) -->
<svg id="svg8" xmlns:rdf="http://www.w3.org/1999/02/22-rdf-syntax-ns#" xmlns="http://www.w3.org/2000/svg" xmlns:osb="http://www.openswatchbook.org/uri/2009/osb" height="48" width="48" version="1.1" xmlns:cc="http://creativecommons.org/ns#" viewBox="0 0 12.7 12.7" xmlns:dc="http://purl.org/dc/elements/1.1/">
 <title id="title4753">UIO-icon</title>
 <metadata id="metadata5">
  <rdf:RDF>
   <cc:Work rdf:about="">
    <dc:format>image/svg+xml</dc:format>
    <dc:type rdf:resource="http://purl.org/dc/dcmitype/StillImage"/>
    <dc:title>UIO-icon</dc:title>
    <dc:creator>
     <cc:Agent>
      <dc:title>Joaquín Urbano</dc:title>
     </cc:Agent>
    </dc:creator>
    <dc:rights>
     <cc:Agent>
      <dc:title>GPL</dc:title>
     </cc:Agent>
    </dc:rights>
   </cc:Work>
  </rdf:RDF>
 </metadata>
 <g id="layer1" fill="#333" transform="translate(0,-284.3)">
  <path id="rect987" d="m0 0v48h48v-48zm22.439 12.832h2.9531l-0.212 15.91h-2.543zm1.5527 19.139c0.54812 1e-8 0.96384 0.158 1.248 0.47266 0.28421 0.30451 0.42773 0.68386 0.42773 1.1406 0 0.45677-0.14352 0.83807-0.42773 1.1426-0.28421 0.29436-0.69993 0.44141-1.248 0.44141-0.54812 0-0.96384-0.14705-1.248-0.44141-0.27406-0.30451-0.41211-0.68581-0.41211-1.1426 0-0.45677 0.13805-0.83611 0.41211-1.1406 0.28421-0.31466 0.69993-0.47266 1.248-0.47266z" fill-rule="evenodd" transform="matrix(.26458 0 0 .26458 0 284.3)"/>
 </g>
</svg>

<svg width="48" height="48" viewBox="0 0 48 48" fill="none" xmlns="http://www.w3.org/2000/svg">
<path fill-rule="evenodd" clip-rule="evenodd" d="M0 0V47.9994H47.9994V0H0ZM22.4387 12.8318H25.3918L25.1798 28.7416H22.6368L22.4387 12.8318ZM23.9914 31.9706C24.5395 31.9706 24.9552 32.1286 25.2394 32.4433C25.5236 32.7478 25.6671 33.1271 25.6671 33.5838C25.6671 34.0406 25.5236 34.4219 25.2394 34.7264C24.9552 35.0208 24.5395 35.1678 23.9914 35.1678C23.4433 35.1678 23.0276 35.0208 22.7434 34.7264C22.4694 34.4219 22.3313 34.0406 22.3313 33.5838C22.3313 33.1271 22.4694 32.7477 22.7434 32.4433C23.0276 32.1286 23.4433 31.9706 23.9914 31.9706Z" fill="#333333"/>
</svg>
